packages/tools/pie-icons/src/assets/cash.svg

<svg width="16" height="16" viewBox="0 0 16 16" fill="none" xmlns="http://www.w3.org/2000/svg">
<path d="M14.4606 10.4786L13.5545 6.19235C13.511 5.98326 13.3716 5.81774 13.1799 5.73062C12.9882 5.6435 12.7705 5.66092 12.5875 5.76546C12.3784 5.88743 12.1606 5.98326 11.9428 6.07909L10.5402 3.1519C10.4531 2.96024 10.2701 2.82956 10.0698 2.79471C9.86939 2.75986 9.6516 2.82085 9.5035 2.96895C8.56261 3.87499 7.32552 4.46739 6.02745 4.63292C4.44189 4.83329 2.94345 5.55638 1.80219 6.65408C1.60182 6.84574 1.54083 7.15065 1.6628 7.4033L3.55328 11.3498C3.6404 11.5415 3.82335 11.6722 4.02372 11.707C4.05857 11.707 4.10213 11.7157 4.13697 11.7157C4.3025 11.7157 4.46803 11.6547 4.58999 11.5328C4.5987 11.5241 4.60742 11.5153 4.62484 11.5066L4.84264 12.5172C4.8862 12.7263 5.02559 12.8918 5.21725 12.9789C5.30437 13.0138 5.39149 13.0312 5.4786 13.0312C5.59186 13.0312 5.70511 13.0051 5.80966 12.9441C6.9422 12.282 8.27512 12.0032 9.59061 12.1426C11.1675 12.3168 12.7879 11.9684 14.1556 11.1756C14.3996 11.0362 14.5215 10.7487 14.4693 10.4786H14.4606ZM3.04799 7.27262C3.9366 6.54082 5.0343 6.06167 6.18427 5.91357C7.46491 5.74804 8.69329 5.24275 9.72129 4.46739L10.6796 6.47113C10.0698 6.59309 9.4338 6.62794 8.81526 6.55825C7.22098 6.38401 5.60057 6.73248 4.23281 7.52527C3.98887 7.66466 3.86691 7.95215 3.91918 8.22222L4.25023 9.79036L3.03928 7.2552L3.04799 7.27262ZM9.73 10.8445C8.44065 10.7051 7.12515 10.9055 5.94033 11.4108L5.78352 10.6529L5.50474 9.31991L5.32179 8.44001C6.35851 7.93472 7.53461 7.73435 8.69329 7.85632C9.1376 7.90859 9.59061 7.89988 10.0436 7.85632C10.88 7.79533 11.6989 7.61238 12.4742 7.28133L12.5004 7.41201L13.1015 10.2521C12.0648 10.7574 10.8887 10.9578 9.74743 10.8358L9.73 10.8445Z" fill="#242E30"/>
<path d="M10.0959 9.16293C9.99136 8.66635 9.5035 8.34401 9.00692 8.45727C8.51034 8.56181 8.188 9.04968 8.30126 9.54625C8.31868 9.64208 8.36224 9.72049 8.4058 9.7989C8.59746 10.1387 8.98078 10.3478 9.39024 10.2606C9.84326 10.1648 10.1308 9.74663 10.1046 9.29361C10.1046 9.25005 10.1046 9.2152 10.1046 9.17164L10.0959 9.16293Z" fill="#242E30"/>
</svg>

<svg width="16" height="16" viewBox="0 0 16 16" fill="none" xmlns="http://www.w3.org/2000/svg">
  <path fill="#242E30" d="m14.46 10.479-.905-4.287a.65.65 0 0 0-.967-.427c-.21.122-.427.218-.645.314L10.54 3.152a.65.65 0 0 0-1.037-.183 6.176 6.176 0 0 1-3.476 1.664 7.492 7.492 0 0 0-4.225 2.021.652.652 0 0 0-.14.75l1.891 3.946c.087.191.27.322.47.357.036 0 .08.009.114.009a.64.64 0 0 0 .453-.183c.009-.009.017-.018.035-.026l.218 1.01a.65.65 0 0 0 .374.462.698.698 0 0 0 .262.052.65.65 0 0 0 .33-.087 6.212 6.212 0 0 1 3.782-.802 7.522 7.522 0 0 0 4.565-.966.662.662 0 0 0 .313-.697h-.008ZM3.049 7.273a6.21 6.21 0 0 1 3.136-1.36 7.498 7.498 0 0 0 3.537-1.446l.959 2.004a6.088 6.088 0 0 1-1.865.087 7.55 7.55 0 0 0-4.582.967.662.662 0 0 0-.314.697L4.25 9.79 3.04 7.255l.008.018Zm6.682 3.571a7.616 7.616 0 0 0-3.79.567l-.156-.758-.28-1.333-.182-.88a6.228 6.228 0 0 1 3.371-.584 6.36 6.36 0 0 0 1.35 0 7.563 7.563 0 0 0 2.431-.575l.026.131.601 2.84a6.194 6.194 0 0 1-3.354.584l-.017.008Z"/>
  <path fill="#242E30" d="M10.096 9.163a.91.91 0 0 0-1.09-.706.91.91 0 0 0-.705 1.09c.018.095.061.174.105.252.191.34.575.549.984.462.453-.096.74-.514.715-.967v-.122l-.01-.009Z"/>
</svg>
